X: 20953
T: the Stolen Kiss
%R: air
B: James Oswald "The Caledonian Pocket Companion" v.2 p.95 #3
Z: 2019 John Chambers <jc:trillian.mit.edu>
M: C
L: 1/8
K: G
|:"_Slow"\
G3A (cB)(AG) | (gf)(ed) B4 |\
(ed)(eg) (d<B) TA>G | (ed)(cB) {B2}A4 |\
G3A (BA)(Bd) | (gf)(ed) B4 |
(e2d)g (g2f)g | (d<B) TA>G G4 ::\
g3a {ga}b3a | (gf)(ed) B4 |\
d2 e/(f/g) (g2f)g | (ed)(cB) {B2}A4 |
(gf)(ga) {ga}b3a | (gf)(ed) e3g |\
dBTAG (A2B)d | Tedef g3d |\
(ba)(gf) (e2f)g | B2 ({d}cB/A/) G4 :|
